_includes/icons/ios-microsoft-windows.svg

<svg fill="#666" height="50" viewBox="0 0 50 50" width="50" xmlns="http://www.w3.org/2000/svg"><path d="m18.585938 3.0683594c-.866051.00991-1.670966.0971521-2.402344.2324218-2.925512.5410792-4.769531 1.8632813-4.769532 1.8632813a1.0001 1.0001 0 0 0 -.386718.5820313l-3.2382815 13.7714842a1.0001 1.0001 0 0 0 1.2128906 1.199219c3.4246929-.849011 8.5673159-1.232429 13.8867189 1.740234a1.0001 1.0001 0 0 0 1.457031-.625l3.796875-14.8847654a1.0001 1.0001 0 0 0 -.43164-1.0898437c-3.377725-2.1537857-6.526851-2.8188002-9.125-2.7890625zm.023437 1.9902344c.744518-.0115883 1.544008.0444479 2.392578.1953124 1.516563.269625 3.210546.9173719 5.007813 1.9667969l-3.316407 12.9999999c-4.722429-2.260045-9.206052-2.325811-12.611328-1.716797l2.792969-11.8808591c.340514-.2249522 1.507826-.9571769 3.671875-1.3574219.628434-.1162302 1.317982-.195443 2.0625-.2070312zm12.03125 3.1367187a1.0001 1.0001 0 0 0 -.945313.7519531l-3.773437 14.7929684a1.0001 1.0001 0 0 0 .384766 1.058594c6.654335 4.781154 13.476192 3.09453 16.314453 2.011719a1.0001 1.0001 0 0 0 .617187-.705078l3.734375-15.876953a1.0001 1.0001 0 0 0 -1.560547-1.0371098s-1.466198 1.0717628-4.007812 1.5371098c-2.541614.465346-6.066016.312869-10.193359-2.3710941a1.0001 1.0001 0 0 0 -.570313-.1621094zm.681641 2.4687495c4.05927 2.254916 7.751105 2.523821 10.441406 2.03125 1.171562-.214501 2.008404-.575306 2.789062-.908203l-3.128906 13.296875c-2.603566.916632-7.907852 1.962557-13.36914-1.617187zm-17.605469 11.457032c-2.742661.01872-5.0183818.682584-6.3710939 1.199218a1.0001 1.0001 0 0 0 -.6171875.705079l-3.7011718 15.746093a1.0001 1.0001 0 0 0 -.0273438.228516v.044922a1.0001 1.0001 0 0 0 1.5859375.810547s1.3777695-1.002946 3.7871094-1.484375c2.4093401-.481429 5.7567681-.424378 9.6933591 1.896484a1.0001 1.0001 0 0 0 1.478516-.615234l3.767578-14.771485a1.0001 1.0001 0 0 0 -.427734-1.089843c-3.215442-2.063026-6.425308-2.688639-9.167969-2.669922zm-.037109 1.992187c2.240793-.02177 4.848727.5552 7.490234 2.078125l-3.265625 12.798828c-3.879163-1.934466-7.379506-2.088479-9.9238282-1.580078-1.0702091.213847-1.8184346.546305-2.5449219.855469l3.109375-13.222656c1.2159996-.427554 2.9626411-.908589 5.1347661-.929688zm12.11914 2.96875a1.0001 1.0001 0 0 0 -.919922.751953l-3.773437 14.783204a1.0001 1.0001 0 0 0 .396484 1.066406c4.680908 3.270101 8.980002 3.63212 12.058594 3.115234s5.02539-1.919922 5.025391-1.919922a1.0001 1.0001 0 0 0 .414062-.763672v-.001953l3.177734-13.5a1.0001 1.0001 0 0 0 -1.214843-1.199219c-1.382262.34294-3.04589.607422-4.884766.607422-2.924526 0-6.284951-.681527-9.707031-2.791015a1.0001 1.0001 0 0 0 -.572266-.148438zm.730469 2.373047c3.345497 1.775504 6.660267 2.566406 9.548828 2.566406 1.447216 0 2.625361-.253596 3.824219-.474609l-2.794922 11.884766c-.361801.239188-1.600493 1.01232-3.876953 1.394531-2.519978.423096-5.982183.152246-9.998047-2.449219z"/></svg>

<svg xmlns="http://www.w3.org/2000/svg" viewBox="0 0 50 50" width="50" height="50" fill="#666"><path style="line-height:normal;text-indent:0;text-align:start;text-decoration-line:none;text-decoration-style:solid;text-decoration-color:#000;text-transform:none;block-progression:tb;isolation:auto;mix-blend-mode:normal" d="M 18.585938 3.0683594 C 17.719887 3.0782694 16.914972 3.1655115 16.183594 3.3007812 C 13.258082 3.8418604 11.414063 5.1640625 11.414062 5.1640625 A 1.0001 1.0001 0 0 0 11.027344 5.7460938 L 7.7890625 19.517578 A 1.0001 1.0001 0 0 0 9.0019531 20.716797 C 12.426646 19.867786 17.569269 19.484368 22.888672 22.457031 A 1.0001 1.0001 0 0 0 24.345703 21.832031 L 28.142578 6.9472656 A 1.0001 1.0001 0 0 0 27.710938 5.8574219 C 24.333213 3.7036362 21.184087 3.0386217 18.585938 3.0683594 z M 18.609375 5.0585938 C 19.353893 5.0470055 20.153383 5.1030417 21.001953 5.2539062 C 22.518516 5.5235312 24.212499 6.1712781 26.009766 7.2207031 L 22.693359 20.220703 C 17.97093 17.960658 13.487307 17.894892 10.082031 18.503906 L 12.875 6.6230469 C 13.215514 6.3980947 14.382826 5.66587 16.546875 5.265625 C 17.175309 5.1493948 17.864857 5.070182 18.609375 5.0585938 z M 30.640625 8.1953125 A 1.0001 1.0001 0 0 0 29.695312 8.9472656 L 25.921875 23.740234 A 1.0001 1.0001 0 0 0 26.306641 24.798828 C 32.960976 29.579982 39.782833 27.893358 42.621094 26.810547 A 1.0001 1.0001 0 0 0 43.238281 26.105469 L 46.972656 10.228516 A 1.0001 1.0001 0 0 0 45.412109 9.1914062 C 45.412109 9.1914062 43.945911 10.263169 41.404297 10.728516 C 38.862683 11.193862 35.338281 11.041385 31.210938 8.3574219 A 1.0001 1.0001 0 0 0 30.640625 8.1953125 z M 31.322266 10.664062 C 35.381536 12.918978 39.073371 13.187883 41.763672 12.695312 C 42.935234 12.480811 43.772076 12.120006 44.552734 11.787109 L 41.423828 25.083984 C 38.820262 26.000616 33.515976 27.046541 28.054688 23.466797 L 31.322266 10.664062 z M 13.716797 22.121094 C 10.974136 22.139814 8.6984152 22.803678 7.3457031 23.320312 A 1.0001 1.0001 0 0 0 6.7285156 24.025391 L 3.0273438 39.771484 A 1.0001 1.0001 0 0 0 3 40 L 3 40.044922 A 1.0001 1.0001 0 0 0 4.5859375 40.855469 C 4.5859375 40.855469 5.963707 39.852523 8.3730469 39.371094 C 10.782387 38.889665 14.129815 38.946716 18.066406 41.267578 A 1.0001 1.0001 0 0 0 19.544922 40.652344 L 23.3125 25.880859 A 1.0001 1.0001 0 0 0 22.884766 24.791016 C 19.669324 22.72799 16.459458 22.102377 13.716797 22.121094 z M 13.679688 24.113281 C 15.920481 24.091511 18.528415 24.668481 21.169922 26.191406 L 17.904297 38.990234 C 14.025134 37.055768 10.524791 36.901755 7.9804688 37.410156 C 6.9102597 37.624003 6.1620342 37.956461 5.4355469 38.265625 L 8.5449219 25.042969 C 9.7609215 24.615415 11.507563 24.13438 13.679688 24.113281 z M 25.798828 27.082031 A 1.0001 1.0001 0 0 0 24.878906 27.833984 L 21.105469 42.617188 A 1.0001 1.0001 0 0 0 21.501953 43.683594 C 26.182861 46.953695 30.481955 47.315714 33.560547 46.798828 C 36.639139 46.281942 38.585937 44.878906 38.585938 44.878906 A 1.0001 1.0001 0 0 0 39 44.115234 L 39 44.113281 L 42.177734 30.613281 A 1.0001 1.0001 0 0 0 40.962891 29.414062 C 39.580629 29.757002 37.917001 30.021484 36.078125 30.021484 C 33.153599 30.021484 29.793174 29.339957 26.371094 27.230469 A 1.0001 1.0001 0 0 0 25.798828 27.082031 z M 26.529297 29.455078 C 29.874794 31.230582 33.189564 32.021484 36.078125 32.021484 C 37.525341 32.021484 38.703486 31.767888 39.902344 31.546875 L 37.107422 43.431641 C 36.745621 43.670829 35.506929 44.443961 33.230469 44.826172 C 30.710491 45.249268 27.248286 44.978418 23.232422 42.376953 L 26.529297 29.455078 z"/></svg>
